X:1
T:Come Near Me
T:John W. Bischoff (1850-1909)
T:Come Near Me
T:Public Domain
T:Public Domain
C:John W. Bischoff (1850-1909)
Z:Public Domain
%%score ( 1 2 ) ( 3 4 )
L:1/8
M:6/8
K:Bb
V:1 treble 
V:2 treble 
V:3 bass 
V:4 bass 
V:1
 [DF] | [Fd]2 [DB] [DF]2 [B,D] | [DF]3 [CE]2 [EF] | [Ee]2 [Ec] [EA]2 [EG] | ([EG]3 [DF]2) [DF] | %5
w: 1.~Come|near me, O my|Sav- ior; Thy|ten- der- ness re-|veal; * O,|
w: 2.~Come|near me, my Re-|deem- er, And|ne- ver leave my|side; * My|
w: 3.~Come|near me, bless- èd|Je- sus, I|need Thee in my|joy; * No|
w: 4.~Be|near me, might- y|Sav- ior, When|comes the lat- est|strife; * For|
 [Fd]2 [DB] [DF]2 [B,D] | [DF]2 [CE] [CE]2 [EF] | [Ee]2 [Ec] [EG]2 [EA] | [DB]3- [DB]2 F | %9
w: let me know the|sym- pa- thy Which|Thou for me dost|feel; * I|
w: bark, when tossed on|trou- ble’s sea, The|storm can- not out-|ride * Un-|
w: less than when the|dir- est ills My|hap- pi- ness de-|stroy; * For|
w: Thou hast thro’ death’s|sha- dows passed, And|oped the gates of|life; * And|
 [Fd]2 [Fd] [^Fd]2 [Ac] | [Ac]3 [GB]2 [GB] | [FA]2 [FA] [=EA]2 [EG] | F3- F2 [EF] | %13
w: Thee ev- ery mo-|ment; Thine ab-|sence brings dis- may;|But * when|
w: the word of pow-|er Ar- rest|the surg- ing wave;|No * voice|
w: the sun shines o’er|me And flow-|ers strew the way,|With- * out|
w: a- mong the ran-|somed I stand|with crown and palm,|To * Thee,|
 [DF]2 [DF] [DB]2 [Fd] | [Gf]2 [Ge] [EG]2 [EG] | [DF]2 [DF] (CD)[EF] | [DF]3- [DF]2 |] %17
w: tempt- er hurls his|darts, ’Twere death with|Thee a- way. * *||
w: Thine its rage can|quell, No arm but|Thine can save. * *||
w: wise and guid- ing|hand More ea- si-|ly I stray. * *||
w: vine, un- fail- ing|Friend, I’ll raise e-|ter- nal psalm. * *||
V:2
 x | x6 | x6 | x6 | x6 | x6 | x6 | x6 | x5 F | x6 | x6 | x6 | F3- F2 x | x6 | x6 | x3 F2 x | x5 |] %17
w: ||||||||need||||the *|||||
w: ||||||||less||||but *|||||
w: ||||||||when||||Thy *|||||
w: ||||||||when||||di- *|||||
V:3
 [B,,B,] | [B,,B,]2 [B,,F,] [B,,B,]2 [B,,F,] | [F,A,]3 [F,A,]2 [F,A,] | %3
 [F,A,]2 [F,A,] [F,C]2 [F,C] | [B,,B,]3- [B,,B,]2 [B,,B,] | [B,,B,]2 [B,,F,] [B,,B,]2 [B,,F,] | %6
 [F,A,]2 [F,A,] [F,A,]2 [F,A,] | [F,A,]2 [F,A,] [F,C]2 F, | [B,,F,]3- [B,,F,]2 F, | %9
 [B,,B,]2 [B,,B,] [D,A,]2 [^F,D] | [G,D]3 [G,D]2 [G,D] | [A,D]2 [A,D] [A,^C]2 [^C,A,] | %12
 [D,A,]3- [D,A,]2 [C,A,] | [B,,B,]2 [B,,B,] [B,,B,]2 [B,,B,] | [E,B,]2 [E,B,] [E,B,]2 [E,B,] | %15
 [F,B,]2 [F,B,] (A,B,)[F,C] | [B,,B,]3- [B,,B,]2 |] %17
V:4
 x | x6 | x6 | x6 | x6 | x6 | x6 | x5 F, | x5 F, | x6 | x6 | x6 | x6 | x6 | x6 | x3 F,2 x | x5 |] %17

